svg/user/user_forbid_fill.svg

<?xml version="1.0" encoding="UTF-8"?>
<svg width="24px" height="24px" viewBox="0 0 24 24" version="1.1" xmlns="http://www.w3.org/2000/svg" xmlns:xlink="http://www.w3.org/1999/xlink">
    <title>user_forbid_fill</title>
    <g id="Icon" stroke="none" stroke-width="1" fill="none" fill-rule="evenodd">
        <g id="User" transform="translate(-816.000000, -48.000000)">
            <g id="user_forbid_fill" transform="translate(816.000000, 48.000000)">
                <path d="M24,0 L24,24 L0,24 L0,0 L24,0 Z M12.5935,23.2578 L12.5819,23.2595 L12.5109,23.295 L12.4919,23.2987 L12.4767,23.295 L12.4057,23.2595 C12.3958,23.2564 12.387,23.259 12.3821,23.2649 L12.378,23.2758 L12.3609,23.7031 L12.3659,23.7235 L12.3769,23.7357 L12.4805,23.8097 L12.4953,23.8136 L12.5071,23.8097 L12.6107,23.7357 L12.6233,23.7197 L12.6267,23.7031 L12.6096,23.2758 C12.6076,23.2657 12.601,23.2593 12.5935,23.2578 Z M12.8584,23.1453 L12.8445,23.1473 L12.6598,23.2397 L12.6499,23.2499 L12.6472,23.2611 L12.6651,23.6906 L12.6699,23.7034 L12.6784,23.7105 L12.8793,23.8032 C12.8914,23.8069 12.9022,23.803 12.9078,23.7952 L12.9118,23.7812 L12.8777,23.1665 C12.8753,23.1546 12.8674,23.147 12.8584,23.1453 Z M12.143,23.1473 C12.1332,23.1424 12.1222,23.1453 12.1156,23.1526 L12.1099,23.1665 L12.0758,23.7812 C12.0751,23.7927 12.0828,23.8019 12.0926,23.8046 L12.1083,23.8032 L12.3092,23.7105 L12.3186,23.7024 L12.3225,23.6906 L12.3404,23.2611 L12.3372,23.2485 L12.3278,23.2397 L12.143,23.1473 Z" id="MingCute" fill-rule="nonzero"></path>
                <path d="M6,7 C6,4.23858 8.23858,2 11,2 C13.7614,2 16,4.23858 16,7 C16,9.76142 13.7614,12 11,12 C8.23858,12 6,9.76142 6,7 Z M4.82227,14.6715 C6.42467,13.6937 8.60453,13 11,13 C11.4475,13 11.887,13.0242 12.3161,13.0698 C12.6658,13.107 12.9702,13.325 13.1179,13.6442 C13.2656,13.9633 13.2349,14.3365 13.0369,14.6272 C12.3825,15.588 12,16.7478 12,18 C12,18.9205 12.2066,19.79 12.575,20.567 C12.7209,20.8746 12.7002,21.2352 12.5203,21.5241 C12.3403,21.8131 12.0257,21.9906 11.6854,21.9953 C11.4591,21.9985 11.2305,22 11,22 C8.77101,22 6.66466,21.8593 5.08716,21.4416 C4.30182,21.2336 3.56324,20.9359 3.00266,20.4859 C2.41114,20.0111 2,19.3449 2,18.5 C2,17.713 2.35805,16.9767 2.84397,16.3615 C3.33788,15.7363 4.02143,15.1602 4.82227,14.6715 Z M16.0677,17.482 C16.0236,17.6472 16,17.8208 16,18 C16,19.1046 16.8954,20 18,20 C18.1792,20 18.3528,19.9764 18.518,19.9323 L16.0677,17.482 Z M17.482,16.0677 L19.9323,18.518 C19.9764,18.3528 20,18.1792 20,18 C20,16.8954 19.1046,16 18,16 C17.8208,16 17.6472,16.0236 17.482,16.0677 Z M14,18 C14,15.7909 15.7909,14 18,14 C20.2091,14 22,15.7909 22,18 C22,20.2091 20.2091,22 18,22 C15.7909,22 14,20.2091 14,18 Z" id="形状" fill="#09244B"></path>
            </g>
        </g>
    </g>
</svg>

<svg xmlns="http://www.w3.org/2000/svg" width="24" height="24"><g fill="none" fill-rule="evenodd"><path d="M24 0v24H0V0h24ZM12.594 23.258l-.012.002-.071.035-.02.004-.014-.004-.071-.036c-.01-.003-.019 0-.024.006l-.004.01-.017.428.005.02.01.013.104.074.015.004.012-.004.104-.074.012-.016.004-.017-.017-.427c-.002-.01-.009-.017-.016-.018Zm.264-.113-.014.002-.184.093-.01.01-.003.011.018.43.005.012.008.008.201.092c.012.004.023 0 .029-.008l.004-.014-.034-.614c-.003-.012-.01-.02-.02-.022Zm-.715.002a.023.023 0 0 0-.027.006l-.006.014-.034.614c0 .012.007.02.017.024l.015-.002.201-.093.01-.008.003-.011.018-.43-.003-.012-.01-.01-.184-.092Z"/><path fill="#09244B" d="M6 7a5 5 0 1 1 10 0A5 5 0 0 1 6 7Zm-1.178 7.672C6.425 13.694 8.605 13 11 13c.447 0 .887.024 1.316.07a1 1 0 0 1 .72 1.557A5.968 5.968 0 0 0 12 18c0 .92.207 1.79.575 2.567a1 1 0 0 1-.89 1.428c-.226.003-.455.005-.685.005-2.229 0-4.335-.14-5.913-.558-.785-.208-1.524-.506-2.084-.956C2.41 20.01 2 19.345 2 18.5c0-.787.358-1.523.844-2.139.494-.625 1.177-1.2 1.978-1.69Zm11.246 2.81a2 2 0 0 0 2.45 2.45l-2.45-2.45Zm1.414-1.414 2.45 2.45a2 2 0 0 0-2.45-2.45ZM14 18a4 4 0 1 1 8 0 4 4 0 0 1-8 0Z"/></g></svg>
